X:1
T:Capricio 1
T:Capriccio 1 Es-Dur
T:G. Gevasini
C:G. Gevasini
L:1/8
Q:1/2=80
M:2/2
K:Eb
V:1 bass nm="Posaune" snm="Psn."
V:1
"^Preludio :""^Allegro" z!<(! .E,.F,.G, .A,.B,.C.D!<)! |!>(! (ED).C.B,!>)! (A,G,).F,.E, | %2
 z!<(! .B,,.C,.D, .E,.F,.G,.A,!<)! |!>(! (B,A,).G,.F,!>)! (E,D,).C,.B,, | %4
 .E,(B,=A,B,) (!>!EB,).G,.E, | .D,(B,=A,B,) (!>!DC)._A,.F, | .E,(B,=A,B,)!>(! (!>!EB,).G,!>)!.E, | %7
 .D,(B,=A,B,)!>(! (DC)._A,!>)!.F, | .E,(B,=A,B,)!>(! (CB,).G,!>)!.E, | %9
 .A,,(C=B,C)!>(! (DC).A,!>)!.F, | .E,(B,=A,B,)!>(! (CB,).G,!>)!.E, | D,!<(!E,F,G, A,B,CD!<)! | %12
!>(! E4 z4!>)! ||[M:2/2]"^Esercizio :""^Allegro" E,2 (ED EDED | E2) .B,2 .G,2 .E,2 | %15
 B,,2 (B,=A, B,A,B,A, | B,2) .F,2 .D,2 .B,,2 | (E,!<(!G,).B,.E!<)!!>(! (GE).B,!>)!.G, | %18
 (D,!<(!G,).=B,.D!<)!!>(! (FD).B,!>)!.G, | (C,!<(!E,).G,.C!<)!!>(! (EC).G,!>)!.E, | %20
 (B,,!<(!E,).G,.B,!<)!!>(! (_DB,).G,!>)!.E, | (A,,!<(!G,,).A,,.B,, .C,.D,.E,.F,!<)! | %22
 G,E E,B, B,,G, E,E | B,,D F,B, D,F, B,,B, | E,2 G,E, B,,2 D,B,, | E,4 z4 || %26
[M:4/4]"^Capriccio :""^Allo Moderato""_dolce"[Q:1/4=100] B,2{/D} (!>!C>B, G,2) !>!E2 | D4 C4 | %28
 (!>!C2 D,>)C (!>!C2 B,>)A, | (!>!=A,4 B,2) z2 | B,2{/D} (!>!C>B, G,2) !>!E2 | (DC) !>!F3 (E DC) | %32
"_ten." .B,.E.D!>(!.C .B,.=A,._A,!>)!.F, |"^a tempo" (E,2 G,>F,) E,2 z2 | G,2{/B,} (A,>G,) G,2 E2 | %35
 D4 C2 z2 | G,2{/B,} A,>G, G,(FED) | !>!D2- (D/F/E/=B,/ C2) !>!_C2 | B,2{/D} (C>B,) F,2 (!>!A,2 | %39
 G,2)!>(! .G.E .B,.G,.E,!>)!.B,, | B,2{/D} (C>B,) F,2"^(            )" (!>!A,2 | %41
 G,2)!>(! .G.E .B,.G,.E,!>)!.B,, | _D,2 (D,>D, E,2 D,2) | (C,E,A,C E)(AGF) | %44
 B2!<(! B,>B, C2 D2!<)! || %45
"^Piu mosso"[Q:1/4=112] .E/(G,/^F,/G,/) .E,/(B,/=A,/B,/) .G,/(E/D/E/ F/E/B,/G,/) | %46
 .A,/(C/=B,/C/) .F,/(A,/G,/A,/) .D,/(F,/=E,/F,/ G,/F,/D,/B,,/) | %47
 .E,/(G,/^F,/G,/) .E,/(B,/=A,/B,/) .G,/(E/D/E/ F/E/B,/G,/) | %48
 .^F,/(E/D/E/) .=A,/(C/=B,/C/) .F,/(A,/^G,/A,/ _B,/A,/F,/D,/) | %49
 .G,/(B,/=A,/B,/) .G,/(D/^C/D/) .B,/(G/^F/G/ A/G/D/B,/) | %50
 .C/(E/D/E/)!<(! .=A,/(C/=B,/C/) .^F,/(A,/^G,/A,/ _B,/A,/F,/D,/) | %51
 .G,/(B,/=A,/B,/) .G,/(D/^C/D/) .B,/(G/^F/G/ =A/G/D/B,/)!<)! | %52
 .=A,/(G/F/G/) .C/(E/D/E/) .A,/(C/=B,/C/ D/C/A,/F,/) | %53
 .B,(3(C,/B,,/=A,,/ B,,).B, .D(3(C,/B,,/A,,/ B,,).D | %54
 .E(3(C,/B,,/=A,,/ B,,).E .=E(3(C,/B,,/A,,/ B,,).E | %55
 F!>(!(=B,/C/ D/C/=A,/!>)!F,/) (=E,/F,/)!<(!.G,/.A,/ ._B,/.C/.D/!<)!.=E/ | %56
 F!>(!(=B,/C/ D/C/=A,/!>)!F,/) (=E,/F,/)!<(!.G,/.A,/ ._B,/.C/.D/!<)!.=E/ |"_dim." (F4 =E2 _E2) || %58
"^Cantabile"[Q:1/4=96] D2 (=A,>B,) G,2!<(! (B,,/D,/).F,/.B,/!<)! | %59
 D2 (=A,>B,) F,2!<(! (D,/F,/).B,/.D/!<)! | (F=EGF _EDCB,) | (=B,4 C2) z2 | %62
 E2 (=B,>C) G,2!<(! (D,/E,/).G,/.C/!<)! | E2 (=B,>C) G,2!<(! (E,/G,/).C/.E/!<)! | %64
 (G!<(!F)(=AG) (FE!<)!DC) |!>(! (^C4 D2)!>)! z2 | D2 (E>D) D,2 (^F,/=A,/C/E/) | (^CD=A,B,) G,2 z2 | %68
 D2 (E>D) (D,/^C,/D,/^F,/ =A,/C/E/D/) |!>(! D(E B,D)!>)! G,2 z2 | F2 (G>F) F,2 (=A,/C/E/G/) | %71
!>(! (=EF^CD)!>)! B,2 z2 | F2 (G>F) F,/!>(!(=E,/F,/=A,/ C/E/G/F/!>)! | B,).F,.G,.=A, .B,.A,.B,.D | %74
 CF C3 (F, DC) | .B,!<(!.F,/.F,/ .G,/.G,/.=A,/.A,/ .B,/.B,/.A,/.A,/ .B,/.B,/.D/.D/!<)! | %76
 C{/=E}F C3 (=E,/F,/ G,/F,/D/C/) |"^Meno"[Q:1/4=88] (.B,.F,.D.B, .=A,)(_G,E,C, | %78
 B,,)(F,DB, =A,)(_G,E,C,) | B,,"_rit." !>!B,2 !>!B,,2 !>!B,2 B,, | %80
"^I. Tempo"[Q:1/4=100] B,2{/D} C>B, G,2 (E,/G,/B,/E/) | (D2- D/C/=B,/C/ A,2) z C | %82
 (C2 D,>)C C2 (D/C/B,/A,/) | (=A,2- A,/B,/C/B,/ G,2) z B, | B,2{/D} (C>B, G,2) (E,/G,/B,/C/) | %85
 DC !>!F2- (3F!>!E!>!D (3!>!F!>!E!>!C | %86
 (3!>!B,!>!G!>!D (3!>!F!>!E!>!C (3!>!B,!>!D!>!C (3!>!G,!>!A,!>!F, || %87
[M:2/2]"^Tempo doppio""_scherzando"[Q:1/2=100] E, z .B,.=A, (!>!CB,) .G,.^F, | %88
 (!>!A,G,) .E,.F, .G,.A,.B,.E | (DC) .C.=B, (!>!DC) .A,.G, | (!>!B,A,)!>(! .F.D .A,.F,.D,!>)!.B,, | %91
 E, z .B,.=A, (!>!CB,) .G,.^F, | (A,G,) .E,.F, .G,.A,.B,.E | (DC) .C.=B, (DC) .A,.G, | %94
 (B,A,) .F.D .A,.F,.D,.B,, | E, z .E,.F,!<(! .G,.A,.B,._D!<)! | C z .F,.G,!<(! .=A,.B,.C.E!<)! | %97
 D z .G,.=A,!<(! .=B,.C.D.F!<)! | (FE)!>(!.D.E (FE).D.C!>)! | (B,=A,)!<(!.B,.C .D.E!<)!.F.G | %100
 .A.F.D.B, .A,.F,.D,.B,, | E, z!>(! .E.D ._D.C.B,!>)!.G, | A, z!>(! .F.=E ._E.D.C!>)!.=A, | %103
 B, z!>(! .G.^F .=F.E.D!>)!.=B, | (C=B,)!<(! (DC) (ED) (FE)!<)! | %105
!>(! (_GE).C.=A, ._G,.E,!>)! .C,.=A,, | (B,,C,)!<(! .D,.E, .F,.G,.A,.B,!<)! | %107
 .E,.B,.G,.E, .D,.F,.D,.B,, | .E,.B,.G,.E, .D,.F,.D,.B,, | E,4 z4 |] %110

